X:315
T:Haste to the Wedding
M:6/8
L:1/8
K:G
DED D2B | AGA BAG | DED D2B | cBc ABc | 
DED D2B | AGA BAG | DED G2A | BAG G3 :| 
Bcd dcB | cde edc | Bcd dcB | cBc ABc | 
d3B3 | AGA BGE | DED G2A | BGG G3 :| 

